src/icons/svg/password.svg

<?xml version="1.0" encoding="UTF-8" standalone="no"?>
<svg width="128px" height="128px" viewBox="0 0 128 128" version="1.1" xmlns="http://www.w3.org/2000/svg" xmlns:xlink="http://www.w3.org/1999/xlink">
    <!-- Generator: Sketch 40 (33762) - http://www.bohemiancoding.com/sketch -->
    <title>password</title>
    <desc>Created with Sketch.</desc>
    <defs></defs>
    <g id="Page-1" stroke="none" stroke-width="1" fill="none" fill-rule="evenodd">
        <g id="password" fill="#000000">
            <path d="M108.8,44.3224615 L89.6,44.3224615 L89.6,38.9612307 C89.6,29.9224615 86.2916923,14.7987692 64,14.7987692 C40.8549743,14.7987692 38.4,31.68 38.4,38.9612307 L38.4,44.3224615 L19.2,44.3224615 L19.2,38.9612307 C19.2,15.2812307 36.798359,0 64,0 C91.201641,0 108.8,15.2812307 108.8,38.9612307 L108.8,44.3224615 L108.8,44.3224615 Z M76.8,83.6775385 C76.8,78.2375385 71.036718,73.8461539 64,73.8461539 C56.963282,73.8461539 51.2,78.2375385 51.2,83.6775385 C51.2,87.36 53.7665642,90.4861539 57.6065642,92.155077 L57.6065642,103.36 C57.6065642,106.077539 60.4816412,108.322462 64.0065642,108.322462 C67.5314872,108.322462 70.4065642,106.077539 70.4065642,103.36 L70.4065642,92.155077 C74.24,90.4861539 76.8,87.36 76.8,83.6775385 L76.8,83.6775385 Z M128,64 L128,113.201231 C128,121.358769 119.355077,128 108.8,128 L19.2,128 C8.65148717,128 -2.36847579e-15,121.358769 -2.36847579e-15,113.201231 L0,64 C0,55.8473846 8.644923,49.2012307 19.2,49.2012307 L108.8,49.2012307 C119.355077,49.2012307 128,55.8473846 128,64 L128,64 Z" id="Shape"></path>
        </g>
    </g>
</svg>

<svg width="128" height="128" xmlns="http://www.w3.org/2000/svg"><path d="M108.8 44.322H89.6v-5.36c0-9.04-3.308-24.163-25.6-24.163-23.145 0-25.6 16.881-25.6 24.162v5.361H19.2v-5.36C19.2 15.281 36.798 0 64 0c27.202 0 44.8 15.281 44.8 38.961v5.361zm-32 39.356c0-5.44-5.763-9.832-12.8-9.832-7.037 0-12.8 4.392-12.8 9.832 0 3.682 2.567 6.808 6.407 8.477v11.205c0 2.718 2.875 4.962 6.4 4.962 3.524 0 6.4-2.244 6.4-4.962V92.155c3.833-1.669 6.393-4.795 6.393-8.477zM128 64v49.201c0 8.158-8.645 14.799-19.2 14.799H19.2C8.651 128 0 121.359 0 113.201V64c0-8.153 8.645-14.799 19.2-14.799h89.6c10.555 0 19.2 6.646 19.2 14.799z" fill-rule="evenodd"/></svg>
